public/assets/elements/staking1.svg

<svg fill="none" height="231" viewBox="0 0 171 231" width="171" xmlns="http://www.w3.org/2000/svg" xmlns:xlink="http://www.w3.org/1999/xlink"><linearGradient id="a" gradientUnits="userSpaceOnUse" x1="30.6926" x2="65.87" y1="232.943" y2="201.187"><stop offset="0" stop-color="#3f07ed"/><stop offset="1" stop-color="#ab95f0"/></linearGradient><linearGradient id="b" gradientUnits="userSpaceOnUse" x1="124.628" x2="158.157" y1="130.534" y2="124.713"><stop offset="0" stop-color="#928da2"/><stop offset="1" stop-color="#ab95f0"/></linearGradient><mask id="c" fill="#fff"><path clip-rule="evenodd" d="m165.11 149.458-52.308-42.618-6.229 7.645.011.009c-2.697 4.118 6.376 16.576 20.571 28.141 14.194 11.565 28.228 17.933 31.716 14.46l.011.008.139-.171c.009-.01.017-.02.025-.03s.016-.02.024-.03z" fill="#fff" fill-rule="evenodd"/></mask><g stroke="#3f07ed" stroke-linejoin="round"><path d="m29.0116 40h55v162h-55z" fill="#fff"/><path d="m1.01172 69 28.49998-29v161.5l-28.49998 29z" fill="#fff"/><path d="m1.00009 230.5 28.01161-28.5h54.9999l-28.0116 28.5z" fill="url(#a)"/></g><g fill="#35ff92"><circle cx="124.5" cy="34.5" r="8" stroke="#000"/><circle cx="62.5" cy="67.5" r="8" stroke="#000"/><circle cx="60.5" cy="8.5" r="8" stroke="#000"/></g><path clip-rule="evenodd" d="m165.11 149.458-52.308-42.618-6.229 7.645.011.009c-2.697 4.118 6.376 16.576 20.571 28.141 14.194 11.565 28.228 17.933 31.716 14.46l.011.008.139-.171c.009-.01.017-.02.025-.03s.016-.02.024-.03z" fill="#311589" fill-rule="evenodd"/><path d="m112.802 106.84.351-.431-.431-.351-.351.431zm52.308 42.618.432.352.351-.432-.431-.351zm-58.537-34.973-.431-.351-.352.431.432.352zm.011.009.465.305.275-.419-.389-.317zm52.287 42.601.352-.431-.389-.317-.355.354zm.011.008-.352.432.432.351.351-.431zm.139-.171-.426-.358-.005.006zm.049-.06-.431-.351-.006.006zm-46.62-49.6 52.309 42.617.703-.862-52.309-42.618zm-5.446 7.565 6.229-7.645-.862-.703-6.229 7.645zm-.069-.774-.01-.009-.703.863.01.008zm20.571 28.141c-7.071-5.761-12.851-11.733-16.522-16.76-1.837-2.516-3.128-4.772-3.796-6.63-.679-1.888-.663-3.215-.139-4.015l-.931-.61c-.824 1.26-.685 3.034.023 5.001.718 1.998 2.076 4.351 3.945 6.91 3.74 5.123 9.593 11.162 16.717 16.966zm30.973 14.497c-.678.674-1.974.959-3.96.675-1.955-.278-4.425-1.087-7.261-2.378-5.664-2.579-12.681-7.034-19.752-12.794l-.703.862c7.124 5.804 14.221 10.316 19.994 12.945 2.884 1.312 5.463 2.167 7.565 2.467 2.069.295 3.835.073 4.902-.989zm.754-.029-.01-.008-.703.862.01.009zm-.643-.092-.14.172.863.703.14-.172zm.025-.029c-.007.008-.013.015-.02.023l.852.716.03-.036zm.018-.024c-.006.008-.012.016-.018.024l.862.703c.01-.013.02-.025.03-.037zm6.046-7.42-6.04 7.414.862.703 6.041-7.414z" fill="#000" mask="url(#c)"/><path d="m164.731 149.484c-.698.856-2.055 1.198-4.04.965-1.971-.231-4.474-1.02-7.348-2.306-5.743-2.569-12.903-7.093-20.112-12.967-7.209-5.873-13.087-11.971-16.764-17.077-1.839-2.554-3.118-4.847-3.743-6.73-.629-1.897-.568-3.295.13-4.152.698-.856 2.054-1.199 4.04-.966 1.97.232 4.474 1.021 7.347 2.307 5.744 2.569 12.904 7.093 20.113 12.967 7.209 5.873 13.086 11.971 16.763 17.077 1.84 2.554 3.119 4.847 3.743 6.729.63 1.898.569 3.296-.129 4.153z" fill="url(#b)" stroke="#000" stroke-width=".556343"/></svg>

<svg width="171" height="231" viewBox="0 0 171 231" fill="none" xmlns="http://www.w3.org/2000/svg">
    <path d="M29.0116 40H84.0116V202H29.0116V40Z" fill="white" stroke="#3F07ED" stroke-linejoin="round"/>
    <path d="M1.01172 69L29.5117 40V201.5L1.01172 230.5V69Z" fill="white" stroke="#3F07ED" stroke-linejoin="round"/>
    <path d="M1.00009 230.5L29.0117 202H84.0116L56 230.5H1.00009Z" fill="url(#paint0_linear_3131_131)" stroke="#3F07ED" stroke-linejoin="round"/>
    <circle cx="124.5" cy="34.5" r="8" fill="#35FF92" stroke="black"/>
    <circle cx="62.5" cy="67.5" r="8" fill="#35FF92" stroke="black"/>
    <circle cx="60.5" cy="8.5" r="8" fill="#35FF92" stroke="black" class="svg-floating speed3"/>
    <mask id="path-7-inside-1_3131_131" fill="white">
        <path fill-rule="evenodd" clip-rule="evenodd" d="M165.11 149.458L112.802 106.84L106.573 114.485L106.584 114.494C103.887 118.612 112.96 131.07 127.155 142.635C141.349 154.2 155.383 160.568 158.871 157.095L158.882 157.103L159.021 156.932C159.03 156.922 159.038 156.912 159.046 156.902C159.054 156.892 159.062 156.882 159.07 156.872L165.11 149.458Z"/>
    </mask>
    <g class="svg-floating speed1">
        <path fill-rule="evenodd" clip-rule="evenodd" d="M165.11 149.458L112.802 106.84L106.573 114.485L106.584 114.494C103.887 118.612 112.96 131.07 127.155 142.635C141.349 154.2 155.383 160.568 158.871 157.095L158.882 157.103L159.021 156.932C159.03 156.922 159.038 156.912 159.046 156.902C159.054 156.892 159.062 156.882 159.07 156.872L165.11 149.458Z" fill="#311589"/>
        <path d="M112.802 106.84L113.153 106.409L112.722 106.058L112.371 106.489L112.802 106.84ZM165.11 149.458L165.542 149.81L165.893 149.378L165.462 149.027L165.11 149.458ZM106.573 114.485L106.142 114.134L105.79 114.565L106.222 114.917L106.573 114.485ZM106.584 114.494L107.049 114.799L107.324 114.38L106.935 114.063L106.584 114.494ZM158.871 157.095L159.223 156.664L158.834 156.347L158.479 156.701L158.871 157.095ZM158.882 157.103L158.53 157.535L158.962 157.886L159.313 157.455L158.882 157.103ZM159.021 156.932L158.595 156.574L158.59 156.58L159.021 156.932ZM159.07 156.872L158.639 156.521L158.633 156.527L159.07 156.872ZM112.45 107.272L164.759 149.889L165.462 149.027L113.153 106.409L112.45 107.272ZM107.004 114.837L113.233 107.192L112.371 106.489L106.142 114.134L107.004 114.837ZM106.935 114.063L106.925 114.054L106.222 114.917L106.232 114.925L106.935 114.063ZM127.506 142.204C120.435 136.443 114.655 130.471 110.984 125.444C109.147 122.928 107.856 120.672 107.188 118.814C106.509 116.926 106.525 115.599 107.049 114.799L106.118 114.189C105.294 115.449 105.433 117.223 106.141 119.19C106.859 121.188 108.217 123.541 110.086 126.1C113.826 131.223 119.679 137.262 126.803 143.066L127.506 142.204ZM158.479 156.701C157.801 157.375 156.505 157.66 154.519 157.376C152.564 157.098 150.094 156.289 147.258 154.998C141.594 152.419 134.577 147.964 127.506 142.204L126.803 143.066C133.927 148.87 141.024 153.382 146.797 156.011C149.681 157.323 152.26 158.178 154.362 158.478C156.431 158.773 158.197 158.551 159.264 157.489L158.479 156.701ZM159.233 156.672L159.223 156.664L158.52 157.526L158.53 157.535L159.233 156.672ZM158.59 156.58L158.45 156.752L159.313 157.455L159.453 157.283L158.59 156.58ZM158.615 156.551C158.608 156.559 158.602 156.566 158.595 156.574L159.447 157.29C159.457 157.278 159.467 157.266 159.477 157.254L158.615 156.551ZM158.633 156.527C158.627 156.535 158.621 156.543 158.615 156.551L159.477 157.254C159.487 157.241 159.497 157.229 159.507 157.217L158.633 156.527ZM164.679 149.107L158.639 156.521L159.501 157.224L165.542 149.81L164.679 149.107Z" fill="black" mask="url(#path-7-inside-1_3131_131)"/>
        <path d="M164.731 149.484C164.033 150.34 162.676 150.682 160.691 150.449C158.72 150.218 156.217 149.429 153.343 148.143C147.6 145.574 140.44 141.05 133.231 135.176C126.022 129.303 120.144 123.205 116.467 118.099C114.628 115.545 113.349 113.252 112.724 111.369C112.095 109.472 112.156 108.074 112.854 107.217C113.552 106.361 114.908 106.018 116.894 106.251C118.864 106.483 121.368 107.272 124.241 108.558C129.985 111.127 137.145 115.651 144.354 121.525C151.563 127.398 157.44 133.496 161.117 138.602C162.957 141.156 164.236 143.449 164.86 145.331C165.49 147.229 165.429 148.627 164.731 149.484Z" fill="url(#paint1_linear_3131_131)" stroke="black" stroke-width="0.556343"/>
    </g>
    <defs>
        <linearGradient id="paint0_linear_3131_131" x1="30.6926" y1="232.943" x2="65.87" y2="201.187" gradientUnits="userSpaceOnUse">
            <stop stop-color="#3F07ED"/>
            <stop offset="1" stop-color="#AB95F0"/>
        </linearGradient>
        <linearGradient id="paint1_linear_3131_131" x1="124.628" y1="130.534" x2="158.157" y2="124.713" gradientUnits="userSpaceOnUse">
            <stop stop-color="#928DA2"/>
            <stop offset="1" stop-color="#AB95F0"/>
        </linearGradient>
    </defs>
</svg>
